X:123
T:Holy God, We Praise Thy Name
%%stretchlast false
M:3/4
L:1/4
K:Eb clef=C1
"^I"[EGBe]2 [EGBe] | [EGBe] "^V"[EFBd] "^I"[EGBe] | "^V7"[B,Adf] "^iii¹"[B,Bdg] "^V7"[B,Adf] | "^I"[E,Ge]3 | [EBeg]2 [EBeg] | [EBeg] "^V"[EBdf] "^I"[EBeg] | [DBeb] "^♯iii°"[DBda] "^I"[EBeg] | "^I²"[Beg] "^V"[B,Bdf]2 | "^I"[EGBe]2 [EGBe] | [EGBe] "^V"[EFBd] "^I"[EGBe] | "^V7"[B,Adf] "^iii¹"[B,Bdg] "^V7"[B,Adf] | "^I"[E,Ge]3 | [EBeg]2 [EBeg] | [EBeg] "^V"[EBdf] "^I"[EBeg] | [DBeb] "^♯iii°"[DBda] "^I"[EBeg] | "^I²"[Beg] "^V"[B,Bdf]2 | [Bdf] "^ii¹"[Acf] "^♭ii°¹"[GB=eg]/ [GB=eb]/ | "^♯iii"[FAfa] "^ii"[FAcg] "^V"[B,Bdf] | "^I"[EBeg]2 "^IV¹"[CEea]/ "^vi"[CEec']/ | "^V"[B,Fdb]3 | "^IV"[A,Aec']2 [A,Aec'] | "^i"[B,Feb] "^V7"[B,Fda] "^vi"[CEeg] | "^IV"[A,cea] "^I²"[B,Beg] "^V7"[B,Adf] | "^I"[EGe]3 |]
